svgs/light/music.svg

<svg xmlns="http://www.w3.org/2000/svg" viewBox="0 0 512 512"><!-- Font Awesome Pro 6.0.0-alpha2 by @fontawesome - https://fontawesome.com License - https://fontawesome.com/license (Commercial License) --><path d="M481.5 0C478.25 0 475.125 0.5 472.25 1.5L181.375 97.5C168.75 101.75 160 114 160 128V372.75C143 360 120.75 352 96 352C43 352 0 387.75 0 432S43 512 96 512S192 476.25 192 432V256L480 160V308.75C463 296 440.75 288 416 288C363 288 320 323.75 320 368S363 448 416 448S512 412.25 512 368V32C512 13.75 497.75 0 481.5 0ZM96 480C61.25 480 32 458.001 32 432C32 406.001 61.25 384 96 384S160 406.001 160 432C160 458.001 130.75 480 96 480ZM416 416C381.25 416 352 394.001 352 368C352 342 381.25 320 416 320S480 342 480 368C480 394.001 450.75 416 416 416ZM480 126.25L192 222.25V128H191.5V127.875L480 32.625V126.25Z"/></svg>

<svg xmlns="http://www.w3.org/2000/svg" viewBox="0 0 512 512"><!--! Font Awesome Pro 6.0.0-alpha3 by @fontawesome - https://fontawesome.com License - https://fontawesome.com/license (Commercial License) --><path d="M481.5 0c-3.25 0-6.375 .5-9.25 1.5l-290.9 96C168.8 101.8 160 114 160 128v244.8C143 360 120.7 352 95.1 352C42.1 352 0 387.8 0 432S42.1 512 95.1 512s95.1-35.7 95.1-79.95L192 256l288-96v148.8C463 296 440.7 288 415.1 288c-53 0-95.1 35.75-95.1 79.1s42.1 79.1 95.1 79.1s95.1-35.75 95.1-80L512 31.99C512 13.74 497.8 0 481.5 0zM96 480c-34.75 0-64-21.1-64-48C32 406 61.25 384 96 384s64 22 64 48C160 458 130.8 480 96 480zM416 416c-34.75 0-64-21.1-64-48c0-25.1 29.25-48 64-48s64 22 64 48C480 394 450.8 416 416 416zM480 126.2l-288 96V128H191.5L480 32.62V126.2z"/></svg>
